public/images/globe.svg

<svg width="160" height="64" viewBox="0 0 160 64" fill="none" xmlns="http://www.w3.org/2000/svg">
<g clip-path="url(#clip0)">
<g clip-path="url(#clip1)">
<path fill-rule="evenodd" clip-rule="evenodd" d="M62.3878 22.9501C61.4099 22.1449 61.4099 20.8201 62.3878 19.9888L62.6629 19.5472C63.2435 18.69 64.3131 18.1445 65.4744 18.1445H75.3453C77.1484 18.1445 78.5847 19.3914 78.5847 20.898V24.3528L69.2639 32.2756L67.2775 30.5871C66.269 29.7299 65.6883 28.535 65.6883 27.3141V25.7815L62.3878 22.9501ZM160.755 26.0651H167.203C168.578 26.0651 169.678 27.0002 169.648 28.1692V28.7666L166.408 31.5201H160.602V34.4294C160.602 35.7023 160.021 36.9231 158.952 37.8323L155.743 40.5598L155.407 40.8455L154.031 42.0145H149.111V43.4172C149.111 44.3004 148.683 45.1576 147.95 45.781L145.138 48.1708V50.119C145.138 51.2879 144.008 52.2491 142.633 52.2491H141.716L134.717 46.3005L127.811 52.1711L123.135 48.2228H121.791H119.896L117.145 45.8849L115.923 46.924L121.546 51.7036L119.987 53.0284C118.276 54.457 115.526 54.457 113.845 53.0284L109.383 49.2358L107.947 50.4567L115.403 56.7949C116.504 57.73 116.504 59.2366 115.403 60.1718L111.156 63.7825V74.3807L105.594 79.1084H103.638C101.193 79.1084 99.2065 77.42 99.2065 75.3419V69.9388L97.9536 68.8738C96.8228 67.9127 96.1811 66.5879 96.1811 65.2371V60.6134H89.1522L83.193 55.548V50.145L89.1522 45.1056H94.1336C95.2948 45.1056 96.395 45.4953 97.2201 46.1966L98.5037 47.2876H106.358L109.505 44.6121L106.694 42.2223L105.319 41.0533H102.568L100.918 42.4561H96.5478L93.5224 39.8844H91.047L87.2881 43.0795L86.3407 42.2742C85.1183 41.2352 85.1183 39.5727 86.3407 38.5337L88.1438 37.0011H90.6497V34.8191L93.1556 32.689H99.451V30.585L102.476 28.0133L100.826 26.6106L96.4561 30.3252L96.1505 30.0654C95.1115 29.1822 95.1115 27.7536 96.1505 26.8704L99.8789 23.7013H103.24C104.28 23.7013 105.319 24.0649 106.052 24.6884L108.527 26.7924H119.498L123.166 23.6753H128.819L132.7 20.3763H140.891C142.296 20.3763 143.641 20.8699 144.619 21.7011L147.155 23.8571H156.14C157.424 23.8571 158.646 24.2727 159.563 25.052L160.755 26.0651ZM59.729 56.2265H61.1959C62.785 56.2265 64.0991 57.3435 64.0991 58.6942V61.8633L50.4999 73.4227V81.6052L49.1858 80.8778C47.1077 79.7349 45.8547 77.7607 45.8547 75.6567V66.0974L42.7681 63.4738C41.7291 62.5906 41.1484 61.3957 41.1484 60.1489V56.3044C41.1484 55.5771 41.4846 54.9017 42.0958 54.3822L44.3267 52.4859L41.4235 50.0182H39.6816C38.123 50.0182 36.6255 49.4987 35.5254 48.5635L29.8412 43.732L27.7631 41.9656C26.3268 40.7447 25.5016 39.0563 25.5016 37.3159V32.9259L20.2453 28.458H17.8005C16.8531 28.458 15.9669 28.7697 15.2945 29.3412L13.3692 30.9777C13.2164 31.1076 12.9414 31.0296 12.9414 30.8218V26.4318L14.2861 25.6266C15.4779 24.9252 16.8837 24.5356 18.3506 24.5356H24.0042H43.0126C44.2961 24.5356 45.3352 25.4188 45.3352 26.5098V27.2371L42.432 29.7048L46.527 33.1856H51.0805V28.6138C51.0805 28.0164 51.9056 27.7307 52.3946 28.1463L54.7172 30.1205H56.7647C58.201 30.1205 59.3929 31.1076 59.3929 32.3544V33.1077L48.4829 42.3812C47.3827 43.3423 45.8547 43.8618 44.2961 43.8618H39.4982V43.9398V47.6284H41.0262C42.3403 47.6284 43.6238 48.096 44.5406 48.8752L48.3606 52.1223H53.4336C54.3504 52.1223 55.2672 52.4599 55.909 53.0054L59.729 56.2265ZM144.996 68.3557V69.9142C144.996 71.9923 146.982 73.6808 149.427 73.6808H153.767L155.203 74.9017C156.12 75.6809 157.403 76.1225 158.717 76.1225H162.018V71.6027C162.018 69.9402 161.254 68.3557 159.879 67.1868L156.67 64.4593H149.671L145.118 68.3297H144.996V68.3557Z" fill="currentColor"/>
</g>
</g>
<defs>
<clipPath id="clip0">
<rect width="160" height="64" fill="white"/>
</clipPath>
<clipPath id="clip1">
<rect width="192.941" height="59" fill="white" transform="translate(9.41211 5)"/>
</clipPath>
</defs>
</svg>

<svg width="160" height="64" fill="none" xmlns="http://www.w3.org/2000/svg"><g clip-path="url(#clip0)"><g clip-path="url(#clip1)"><path fill-rule="evenodd" clip-rule="evenodd" d="M62.388 22.95c-.978-.805-.978-2.13 0-2.961l.275-.442c.58-.857 1.65-1.402 2.811-1.402h9.871c1.803 0 3.24 1.246 3.24 2.753v3.455l-9.321 7.923-1.986-1.689c-1.009-.857-1.59-2.052-1.59-3.273v-1.532l-3.3-2.832zm98.367 3.115h6.448c1.375 0 2.475.935 2.445 2.104v.598l-3.24 2.753h-5.806v2.91c0 1.272-.581 2.493-1.65 3.402l-3.209 2.728-.336.285-1.376 1.17h-4.92v1.402c0 .883-.428 1.74-1.161 2.364l-2.812 2.39v1.948c0 1.169-1.13 2.13-2.505 2.13h-.917l-6.999-5.949-6.906 5.871-4.676-3.948h-3.239l-2.751-2.338-1.222 1.039 5.623 4.78-1.559 1.324c-1.711 1.429-4.461 1.429-6.142 0l-4.462-3.792-1.436 1.22 7.456 6.339c1.101.935 1.101 2.442 0 3.377l-4.247 3.61v10.599l-5.562 4.727h-1.956c-2.445 0-4.431-1.688-4.431-3.766v-5.403l-1.253-1.065c-1.131-.961-1.773-2.286-1.773-3.637v-4.624h-7.029l-5.959-5.065v-5.403l5.96-5.04h4.98c1.162 0 2.262.39 3.087 1.092l1.284 1.09h7.854l3.147-2.675-2.811-2.39-1.375-1.169h-2.751l-1.65 1.403h-4.37l-3.026-2.572h-2.475l-3.759 3.196-.947-.806c-1.223-1.039-1.223-2.701 0-3.74L88.144 37h2.506V34.82l2.506-2.13h6.295v-2.104l3.025-2.572-1.65-1.402-4.37 3.714-.306-.26c-1.038-.883-1.038-2.311 0-3.195l3.729-3.169h3.361c1.04 0 2.079.364 2.812.987l2.475 2.104h10.971l3.668-3.117h5.653l3.881-3.299h8.191c1.405 0 2.75.494 3.728 1.325l2.536 2.156h8.985c1.284 0 2.506.416 3.423 1.195l1.192 1.013zM59.729 56.227h1.467c1.589 0 2.903 1.117 2.903 2.467v3.17L50.5 73.422v8.182l-1.313-.727c-2.078-1.143-3.331-3.117-3.331-5.221v-9.56l-3.087-2.623c-1.039-.883-1.62-2.078-1.62-3.325v-3.845c0-.727.337-1.402.948-1.922l2.23-1.896-2.903-2.468h-1.741c-1.559 0-3.056-.52-4.157-1.455l-5.684-4.831-2.078-1.766c-1.436-1.221-2.261-2.91-2.261-4.65v-4.39l-5.257-4.468H17.8c-.947 0-1.833.312-2.506.883l-1.925 1.637c-.153.13-.428.052-.428-.156v-4.39l1.345-.805a8.023 8.023 0 014.065-1.091h24.662c1.283 0 2.322.883 2.322 1.974v.727l-2.903 2.468 4.095 3.48h4.553v-4.571c0-.598.826-.883 1.315-.468l2.322 1.974h2.048c1.436 0 2.628.988 2.628 2.234v.754l-10.91 9.273c-1.1.961-2.628 1.48-4.187 1.48h-4.798V47.629h1.528c1.314 0 2.598.468 3.515 1.247l3.82 3.247h5.073c.916 0 1.833.338 2.475.883l3.82 3.221zm85.267 12.129v1.558c0 2.078 1.986 3.767 4.431 3.767h4.34l1.436 1.22c.917.78 2.2 1.222 3.514 1.222h3.301v-4.52c0-1.663-.764-3.247-2.139-4.416l-3.209-2.728h-6.999l-4.553 3.87h-.122v.027z" fill="currentColor"/></g></g><defs><clipPath id="clip0"><path fill="#fff" d="M0 0h160v64H0z"/></clipPath><clipPath id="clip1"><path fill="#fff" transform="translate(9.412 5)" d="M0 0h192.941v59H0z"/></clipPath></defs></svg>
